X: 3401
M: 6/8
L: 1/8
K: G
c2A AGA | B2G GFG | E2e d2c | B2G G2 H:|
d |\
d2c Bcd | e2f g2a | b2a gfe | d2c Bcd |\
e2e ecA | d2d dBG | c2A B2G | A3 "_D.C."d2 |]


